X:1
T:Lohengrin
T:Prelude to Act I for Piano
T:Richard Wagner
%%score { ( 1 4 5 ) | ( 2 3 ) }
L:1/8
Q:1/4=37
M:4/4
K:A
V:1 treble nm="Klavier" snm="Klav."
V:4 treble 
V:5 treble 
V:2 treble 
V:3 treble 
V:1
"^slow"!pp! [ae']4 e'4 |!8va(! [e'a'e'']8!8va)! | [ae']4 e'4 |!8va(! [e'a'e'']8 | %4
!p! ([c'e']2- [c'e']7/4[c'e'a']/4) ([c'e'a']2 [c'e']7/4[ac'f']/4) | %5
!<(! ([ac'f']4 e')!<)!!mf!!>(! ((e'2 e'/)f'/)!>)! |!p! (f'2 e'>!8va)!b d'2- (3d'c'b) | %7
 (b3"_dim." c' e'2-) (e'/e'-e'/4(f'/4) |!pp! f'2- (3f'e'b d'4 | %9
!<(! c'2- (3c'ba!<)!!mf!!>(! c'2 b>f')!>)! |!p! (f'2- (3[c'f']e'c' e' d'3 | %11
 c'2 (3c'ba"_dim." [be']4) |!pp! [c'e']2 ([c'e']7/4[ac'f']/4) [ac'f']2 z/ a/c'/f'/ | %13
 [c'^e']4 ([b=e']2 b>g) | ([eg]4 [gb]2 z e') |!8va(! [ab]4!p! [gb]2!<(! e'7/4a'/4!<)! | %16
!mf!!>(! ([c'e'a']4 e'2) (e'>!>)!f' |!p! [^b^d'g'-]4) [gb]4 | [gc']2 g4 ^^f2!8va)! | %19
!p!!<(! ([gb] ^a2 =a2!<)!!mf!!>(! g2 e'-!>)! |!p! e'ge!>(!g- gbee'!>)! |!pp! f' f2 b ae'^d'b | %22
!<(! a)f^d!<)!!mp! e2!>(! gee'-!>)! |!p! e'c'af- f^dea |!<(! gfe!<)!c-!>(! cefc'!>)!!mp! | %25
!<(! c2- (3cBG!<)!!mf!!>(! B A3!>)! |!p! ^Bgec =B4 | [Ae]2!<(! A7/4=d/4 d2 d>e!<)! | %28
!mf!!>(! =f2- f/e/d/e/!>)!!p! !^![=cf]2!<(! !^!d>!^!d!<)! |!mf!!>(! [e^ge']4 [^da]4!>)! | %30
!p!!<(! [ge']4 z a2 a!<)! |!mf!!>(! [ege']4 f'2 b2!>)! |!p! e2 !^!e>!^!e!<(! !^!B2 !^!c2!<)! | %33
!mf! (^d!>(!^d'- d'>[cc']) ([cc']2 ([Bb]2)!>)! | [fb]2) a3 a g>f |!<(! (e ^d2 =d2!<)! c2 A | %36
 A)cAF Eeca | bBeb- bagd'- | d'dd'c'- c'gaf'- | (f'c'd'b- (b d2 b- | %40
!<(! b) c2 c'-!<)!!mf!!>(! c' a2 f-)!>)! |!mp! f (f2 e2 dAF |!mf! ^Ec!>(!Af =e) (e'2 d'!>)! | %43
!p! [ac']2 =c'2!<(! b2 _b2-)!<)! |!>(! ([_Bb]2- [Bb]/[Aa]/!>)!!mp![=G=g]/[Aa]/ _b=fdd') | %45
!>(! (^c'2 a>e [^gd']4)!>)! |!p! (c'aec) z (d2 d' | c'2 a>!>(!e [^gd']4)!>)! | %48
!pp! (c'!<(!aec) (d_B=GD) | =C =F2 A [A,^C=GA]7/2- [A,CGA]/4!^![C^FAd]/4!<)! | %50
!ff! !^![DFAd]4 !^![A,DFA]7/2 !^![B,DFB]/ | !^![B,DFB]4 !^![CF^Ac]2 !^![DFBd]2 | %52
!fff! !^![EAce]7/2!ff! [FAdf]/ !^![FAdf]2 (3:2:2[ad'f']2 ^g |!>(! [=gc']4!>)! f2 [fa]2 | %54
 [c-^egc'-]2 f2 [fa]4 | [fgbf'-]2 [gc']2 f2"_dim." [^gb]2 | (c'2- (3c'ba e'7/2) e'/ | %57
!p!!8va(! (a'3 g' f'2 e'>d'!8va)! | c'3 b a3 g | f2 ^e2 =e3 ^d | =d2 c>B A3 G | F3 E) (E2 ^D>E) | %62
 (E2 A>G) (G2 (F>)F | B3 A G3 F) | (F2 E4 =D2 | [=A,C]4) (C3 B,) |!pp! [A,E]4 [Ae]4 | %67
 [ae']4!8va(! [a'e'']4!8va)! | [A,E]4 [Ae]4 | [ae']4!8va(! [a'e'']4 | [ae']4 e'4 | [e'a'e'']8 | %72
 ([c'e']2- [c'e']7/4[c'e'a']/4) ([c'e'a']2 [c'e']7/4[ac'f']/4) | [ac'f']4 [ad'f']4 | %74
 !fermata![ac'a']8!8va)! |] %75
V:2
!ped! [Ac]4 [Ace]4 | [c'e']8 | [Ac]4 [Ace]4 | !>![c'e']8 | (a2- a7/4a/4) a2-!ped-up! (a7/4f/4) | %5
!ped! (f4 [ac']2)!ped-up! ([ac']2 | [gb]4 [fa]2 [e-g]2) | e2 (e2 a2) a2- | a2 g4 f2 | %9
 [eg]2 f2 [^df]4 | [=dgb]2 [^A=g]2 [Bfb]2 [^Bfa]2 | [c^eg]2 (3:2:2d2 ^d e4- | e z a7/4f/4 f2 f2 | %13
!ped! [cg]4 [eg]3 B-!ped-up! | (B.B-.c.^d .e.f .g>g) | (f3 ^d) (e2 [gb]7/4a/4) | %16
!ped! (a4 [ac']2) ([ac']2!ped-up! | g3 f e2 ^d2 | c3 =c B2 ^A2) | %19
 ([GB-]2 [FB]7/4[EBe]/4) [EBe]2 ([EGB]7/4[CEGc]/4) | ([CEGc]4 [EGB]2) [EG]2 | %21
 c2 B>F [CEA-]2 (3AGF | ([G,^B,F]3 [EG] [EGB]2) [EG]2- | [EG]2 (3cBF A4 | G2- (3GFE G2 F2 | %25
!p! ([=A,^DF]2[K:bass] ([^E,=DG]2 [F,CF]2 [^^F,C=E]2) | %26
 [G,^B,^D]2 [A,C]2 ^A,[K:treble] (4:3:4=B,)FB=A | [EG]2 ([E=G]7/4[=DFA]/4) [DFA]2 [D=FA]2 | %28
 ([=C=FA]2 =c>_B) (B A3) | =B4 [B,B]4 | E4 =F4 | B4 B4 | CcGc G4 | %33
 ([B,F]2 [^A,C^^F]2 [G,^DG]3) G, |[K:bass]!mp! [F,^D]4 ^B,4 | %35
 ([C,E,C]2 [B,,E,G,]7/4)[A,,E,A,]/4!mf!!>(! [A,,E,A,]2 ([A,,A,]7/4[F,,F,]/4)!>)! | %36
!p! [F,,F,]4 [A,,A,]2 ([A,C]2 | [G,B,]4 [F,A,]2 [E,G,]2) | ([E,G,B,]3 [A,C] [A,CE]2) [A,C]2- | %39
 ([A,C]2 [G,B,]4 [F,A,]2 | [^E,G,]2 [F,A,]2 [^D,F,A,]4) | %41
 ([=D,G,B,]2!<(! [^A,,=G,C]2 [B,,F,B,]2 [^B,,F,=A,]2!<)! | [C,^E,G,]2 [D,F,]2 [=E,B,=E]4) | %43
 [A,CE]2 ([A,=CE]7/4[=G,B,D=G]/4) [G,B,DG]2 [G,_B,DG]2 | %44
 [=F,_B,D]2 [=F,=C]2 !arpeggio!!^![_B,,F,_E]2 B,,2 | [A,,E,A,]4 =B,2 (^G,>E,) | %46
 A,2 A,>A, (=F,2 =G,2 | [E,A,]2) z2 (=B,2 ^G,>E,) | A,2 z2 (=F,2 =G,2) | %49
!p!!<(! !////![=F,,=C,]2 !////!=F,2 !///![E,,A,,^C,]!///!E,-!///![E,,A,,C,E,]!///![D,,^F,,A,,D,]!<)! | %50
 !////![D,,F,,A,,]2 !////!D,2 !///![D,,F,,A,,]!///!D,!///![D,,F,,A,,]!///![B,,,D,,F,,B,,] | %51
!<(! !////![B,,,D,,F,,]2 !////!B,,2 !////![F,,^A,,C,]2 !////![B,,D,F,B,]2!<)! | %52
!f! (3:7:3!///![A,,C,E,]/!///![A,,C,E,A,]/!///![A,,C,E,]/!//![D,F,A,D]/ !//![D,F,A,D]2 (3!^![D,,D,]!^![C,,C,]!^![B,,,B,,] | %53
!mf! [A,,,A,,]2 !arpeggio![^A,,,E,,=G,,C,]2 !arpeggio![B,,,D,,F,,B,,]2 !arpeggio![^B,,,F,,=A,,F,]2 | %54
 !arpeggio![C,,^E,,^G,,C,]2 !arpeggio![D,,F,,D,]2 !arpeggio![^D,,F,,A,,^D,]4 | %55
 !arpeggio![=D,,G,,B,,=D,]2 !arpeggio![^A,,,E,,=G,,C,]2 !arpeggio![B,,,D,,F,,B,,]2!mp! !arpeggio![^E,,B,,D,^G,]2 | %56
 [F,,A,,C,F,]2 (3:2:2[D,F,A,D]2 [^D,F,A,^B,] E,4 | [F,,A,]8 | [G,,^E,B,]4 [A,,F,A,]2 [B,,B,]2 | %59
 C2 z2 B,4 | A,4 G,4 | [A,,A,]2 [^A,,^A,]2 [B,,F,]4 | [C,E,A,]4 [D,A,]4 | [^D,F,]4 [G,,D,G,]4 | %64
 G,3 =G, F,4 | (E,2 ^D,2 [E,,=D,]4) | [A,,C,]4 [A,C]4 |[K:treble] [Ac]4 [ac']4 | %68
[K:bass] [A,,C,]4 [A,C]4 |[K:treble] [Ac]4 [ac']4 | [Ac]4 [Ace]4 | [Ac]8 | %72
 (a2- a7/4a/4) a2- (a7/4f/4) | f4 d4 | !fermata![Ae]8 |] %75
V:3
 x8 | x8 | x8 | x8 | x8 | x8 | x8 | g3 a c'2 c'2- | c'2 b4 a2 | b2 a2 (a4 | x8 | x2 f2 (a2) g2) | %12
 a2 x2 FA/c/ x2 | x8 | x B x2 B2 B2 | B4 x4 | x8 | x8 | x2 e4 =c2 | x8 | x6 B>c | [^DF]4 x4 | %22
 x6 B>c | c2 [^DF]4 [CE]2 | [^B,^D]2 [CE]2 [^A,CE]4 | x2[K:bass] x6 | (G2- GFE)[K:treble] x3 | x8 | %28
 x2 [=C=G]2 =F4 | (E2 ^G>E) (B,^DFB-) | B(BGB) A4 | (E2 G>E) (B,^DFB) | C4 E4 | x8 | %34
[K:bass] A,3 B, E,2 ^D,2 | x8 | x6 (E>F) | (F2 E>B, D2- (3DCB,) | x6 (E>F) | (F2 (3FEB, D4 | %40
 C2 (3CB,A, C2 B,2) | x8 | (C2- (3CB,[^D,A,]) A,2 G,2 | x8 | x2 =F>_E (ED !^!=G,>)!^!G, | %45
 (A,,C,E,A,){/D,} E,4 | [A,,C,E,]4 [_B,,D,]4 | (!^!A,,C,E,A,) E,4 | %48
{E,,} [A,,C,E,]4{=F,,} [_B,,D,]4 | x8 | x8 | x8 | x8 | x8 | x8 | x8 | x4 ([A,C]2 [=B,=D]2) | %57
 (C,4 E,4) | x8 | C,3 D, [E,G,]4 | F,4 z2 G,,2 | x8 | x8 | x8 | C,4 =D,4 | x8 | x8 |[K:treble] x8 | %68
[K:bass] x8 |[K:treble] x8 | x8 | x8 | x8 | x8 | x8 |] %75
V:4
 x8 |!8va(! x8!8va)! | x8 |!8va(! x8 | x8 | x8 | x7/2!8va)! x9/2 | x8 | x8 | x8 | x8 | x4 z2 z d' | %12
 x8 | x8 | x8 |!8va(! (e'2 ^d'>)f' (e'2- =d'7/4[c'e']/4) | x8 | x4 g'3 f'- | %18
 f' e'3- (e'e'^d'c')!8va)! | ^d3 x5 | x8 | x8 | x2 b3 x3 | x8 | g6 c2 | c'f g2 x2 (3aec | %26
 x2 e4 ^d2 | x8 | x8 | z b2 b f'2 ^d'>b | e2 !^!e>!^!e !^!=c2 !^!d2 | z b2 b [^da]4 | %32
 [ge']4 z g2 e | ^d2 d d2 (d (3(d)e^e) | (3(BAG A4 G>F) | E2- E7/4[EA]/4 [EA]2 ([CE]7/4[A,CF]/4) | %36
 [A,CF]4 C2 A2 | z B3- [Bd]3 d- | d2- d c4 f- | f2 d3 B3- | Bc- c4 (B>F) | (F2- (3FEC E D3) | %42
 x4 e4- | e e2- (e/>=g/) g d2!mf! z/ A/ | z =f2 x _B2 d2 | ^c4 d4 | x8 | z e2 z d4 | x8 | A4 z4 | %50
 x8 | x8 | x8 | f'-f'!f![ee'][cc'] [ee'] [dd']3 | x2 (3[cc'][Bb][Aa] [cc']2 [Bb]>[ff'] | %55
 x2 (3[ff'][ee'][cc'] [ee'] [dd']3 | [cfa]2 f2 e4 |!8va(! a6 [fa]2!8va)! | [c^e]4 [cf]2 [Bd]2 | %59
 [GB]8 | [FA]4 [^B,^D]4 | C4 =A,4 | E4 D4 | B,2 ^B,2 [B,^D]4 | C4 ^A, B,3 | x4 G,4 | x8 | %67
 x4!8va(! x4!8va)! | x8 | x4!8va(! x4 | x8 | x8 | x8 | x8 | x8!8va)! |] %75
V:5
 x8 |!8va(! x8!8va)! | x8 |!8va(! x8 | x8 | x8 | x7/2!8va)! x9/2 | x8 | x8 | x8 | x8 | x8 | x8 | %13
 x8 | x8 |!8va(! x8 | x8 | x8 | x8!8va)! | x8 | x8 | x8 | x8 | x8 | x8 | x8 | x4 z b2 b- | %27
 b b2 b/>=d'/ d' d'2 a- | a =c'2 c'2 (c'2 a) | x8 | x8 | x6 ^d'>b | x8 | x8 | x8 | x8 | x8 | x8 | %38
 x8 | x8 | x8 | x8 | x8 | x8 | x8 | z e2 z z e2 e- | [ce]2 A>A (=F2 =G2 |{/A} c4) z e2 e- | %48
 [ce]2 A>A [D-=F]2 =G2 | x8 | x8 | x8 | x8 | x8 | x8 | x8 | x4 (a3 g) |!8va(! x8!8va)! | x8 | x8 | %60
 x8 | x8 | x8 | x8 | x8 | x8 | x8 | x4!8va(! x4!8va)! | x8 | x4!8va(! x4 | x8 | x8 | x8 | x8 | %74
 x8!8va)! |] %75

